Modules/BetterCms.Module.Root/Scss/base_64/icons/cp-indicate-on.svg

<svg xmlns="http://www.w3.org/2000/svg" preserveAspectRatio="xMidYMid" width="13" height="7" viewBox="0 0 13 7">
  <path fill="#c6c6c6" fill-rule="evenodd" d="M12.000,7.000 L12.000,6.000 L11.000,6.000 L11.000,5.000 L12.000,5.000 L12.000,0.000 L13.000,0.000 L13.000,5.000 L13.000,6.000 L13.000,7.000 L12.000,7.000 ZM10.000,4.000 L9.000,4.000 L9.000,2.000 L10.000,2.000 L10.000,3.000 L11.000,3.000 L11.000,5.000 L10.000,5.000 L10.000,4.000 ZM8.000,7.000 L7.000,7.000 L7.000,0.000 L8.000,0.000 L8.000,1.000 L9.000,1.000 L9.000,2.000 L8.000,2.000 L8.000,7.000 ZM5.000,1.000 L6.000,1.000 L6.000,6.000 L5.000,6.000 L5.000,1.000 ZM5.000,7.000 L1.000,7.000 L1.000,6.000 L5.000,6.000 L5.000,7.000 ZM-0.000,6.000 L-0.000,1.000 L1.000,1.000 L1.000,6.000 L-0.000,6.000 ZM1.000,0.000 L5.000,0.000 L5.000,1.000 L1.000,1.000 L1.000,0.000 Z"/>
</svg>

<svg xmlns="http://www.w3.org/2000/svg" width="13" height="7" viewBox="0 0 13 7">
 <path fill="#c6c6c6" fill-rule="evenodd" d="m12 7v-1h-1v-1h1v-5h1v5 1 1h-1m-2-3h-1v-2h1v1h1v2h-1v-1m-2 3h-1v-7h1v1h1v1h-1v5m-3-6h1v5h-1v-5m0 6h-4v-1h4v1m-5-1v-5h1v5h-1m1-6h4v1h-4v-1"/>
</svg>
